svg/colored/f-4.svg

<svg xmlns="http://www.w3.org/2000/svg" viewBox="30 -115 580 830"><g>
<!--frame-->
<path d="M550 685h-460q-13 0 -21.5 -8.5t-8.5 -21.5v-710q0 -13 8.5 -21.5t21.5 -8.5h460q13 0 21.5 8.5t8.5 21.5v710q0 13 -8.5 21.5t-21.5 8.5zM610 655v-710q0 -25 -17.5 -42.5t-42.5 -17.5h-460q-25 0 -42.5 17.5t-17.5 42.5v710q0 25 17.5 42.5t42.5 17.5h460q25 0 42.5 -17.5 t17.5 -42.5z"/>
<!--index-->
<path d="M229 513l-10 -33l17 -2l7 18l3 17h-17zM195 511l-1 -26l6 -3l11 -1l-2 30h-14zM229 558l4 -30l15 3l-3 30zM207 556l-10 -33l15 3l9 31zM212 453l13 4l5 7l-30 2l-14 -8l-14 9l2 44l-9 2l4 8h7l17 42l12 13h5l1 -7l26 6l14 7l21 -11l3 -32l10 5l11 -10l-7 -16l-15 -2 l-5 -26l-9 -18l11 -14l-21 3l-18 -18zM217 580l18 19l-39 -14l-7 1l-3 42l23 7l11 -13l-10 -22l44 15l24 -8l-3 -13l-20 -2zM180 553l-24 -34l-4 -73l-9 3l-1 50l-20 -32l-12 2v24l9 11l13 48l-11 1l-11 4l5 9l20 2l-6 35l17 25l21 -12l-6 -44l24 3l2 -4l-28 -13v-12z"/>
<!--flower-trunk-branch-->
<path d="M362 169q12 0 26 -17q31 11 35 16q1 1 10 2q11 1 20 3q0 3 1 22t1 21q-5 2 -19 7q-3 -6 -11 -6q-6 0 -9 4q-4 -9 -11 -9q-11 0 -11 10q0 7 6 9q-4 6 -4 11q0 12 12 15q-12 22 -23 54q0 -10 -13 -10q-15 0 -15 13q-6 -2 -10 -2q-9 0 -15 5t-6 13q0 16 20 18 q-2 4 -2 6q0 6 5 10.5t12 4.5q4 0 5 -1q-8 28 -15 55q-2 -5 -8 -5q-9 0 -9 8t9 8q2 0 6 -2q-5 15 -10 42l9 1l8 -27q3 3 8 3q11 0 11 -10t-11 -10q-3 0 -4 1q8 -27 23 -75q1 0 3 0.5l2 0.5q13 0 13 -14q0 -5 -3 -8q6 -4 6 -11t-8 -9q14 -40 31 -65q3 -2 28 -13 q-2 43 -13 136q-4 -3 -10 -3q-12 0 -12 10q0 11 13 11q3 0 7 -2q-7 53 -10 75q-1 -1 -4 -1q-12 0 -12 11q0 3 1 4q-1 0 -2 1q-2 -1 -6 -1q-9 0 -15.5 7t-6.5 15q0 11 11 16q-1 1 -1 5q0 13 14 13q9 0 12 -6l-3 21q-4 -2 -7 -2q-13 0 -13 12q0 8 7 11q0 3 1 4q-12 0 -12 11 q0 9 11 9q3 0 7 -2l-7 52h11l10 -67q3 -2 3 -5q0 -2 -1 -3l6 -38q15 0 15 -11q0 -3 -2 -7q13 -4 13 -16q0 -7 -5 -11.5t-12 -4.5l2 -11q2 1 7 1q13 0 13 -13q0 -10 -13 -10q-3 0 -4 1q16 -107 21 -147q1 0 3.5 0.5t3.5 0.5q4 0 5 1q-7 2 -7 9q0 14 12 14q4 0 6 -1q4 15 5 27 q-6 3 -6 11q0 6 5 11q-6 2 -6 11q0 10 13 10l3 49q-6 2 -6 9q-4 0 -7.5 3t-3.5 7q0 10 9 10q5 0 9 -4q1 9 1 24q0 13 -1 18h10q1 -10 1 -30v-12l-1 -8q5 -2 5 -8q0 -4 -4 -8q-3 -53 -3 -55q8 0 8 -10q1 1 4 1q11 0 11 -13t-11 -13q-3 0 -4 1q-3 -5 -12 -7q-1 -4 -2.5 -13.5 t-2.5 -13.5q12 0 12 -10q0 -2 -2 -6q4 -4 4 -9q0 -13 -16 -13q-7 0 -12 5q-4 -2 -11 -4.5t-9 -3.5q6 -54 6 -111q21 -3 62 -6v-62q-21 5 -44 7.5t-36 4t-19 5.5q0 -25 -25 -49t-86 -59q2 -14 2 -24q0 -14 -7 -19q-74 -12 -115 -12q-4 -3 -9 -3q-9 5 -10 12l1 1q0 2 1 2l-5 4 q0 -12 -11 -12q-8 0 -8 10t11 10q-9 9 -14 15q0 -7 -5.5 -12.5t-13.5 -5.5q-13 0 -15 13q-4 -2 -7 -2q-11 0 -11 14q0 8 6 11q-2 6 -2 8q0 14 13 16l-16 24q-8 5 -8 10q0 14 12 14q13 0 13 -12q0 -8 -6 -11q9 -13 20 -26q2 1 6 1q12 0 12 -11q0 -3 -1 -5q15 0 15 -12 q0 -2 -2 -6q14 -13 35 -30q5 0 16.5 0.5t16.5 1.5l-9 14q-2 -2 -6 -2q-10 0 -10 9q0 7 8 9q-15 27 -36 76q-5 -5 -13 -5q-16 0 -18 15q-15 2 -15 15q0 9 10 14q-2 2 -2 6q0 11 10 11q3 0 7 -2q-13 39 -21 75l11 2q9 -34 14 -48q3 6 9 6q11 0 11 -12q0 -11 -14 -11l5 -14 q16 0 16 -14q9 -2 9 -13q0 -15 -9 -16q16 -39 32 -69q2 10 11 10q11 0 11 -10t-10 -10q-5 0 -7 1q18 -30 22 -35q32 5 47 13q0 2 1 5t1 5l-13 -5q-13 7 -13 19q5 5 50.5 34.5t55.5 51.5q-11 -3 -28 -5q-15 3 -20 23q6 10 23 18q-13 16 -15 24q5 7 13 7zM256 272 q6 -47 10 -72q3 6 11 6q13 0 13 -10q0 -13 -13 -13q-5 0 -9 2l4 -22q3 -1 3 -5q3 2 7 2q10 0 10 -11q0 -5 -4 -9t-8 -4h-1q-1 1 -2 1q3 -15 14 -58l29 -11q-9 -6 -19 -11l-33 17q0 1 -1 3t-1 3q0 2 6 6l5 -2q-2 8 -5.5 24t-5.5 23l-2 -1h-2q-9 0 -9 13q-2 -2 -5 -2 q-9 0 -9 9t9 9q2 0 3 -1q0 9 9 9q-4 20 -5 31q-2 -1 -4 -1q-2 -8 -10 -8q-5 0 -8 4q-1 -1 -4 -1q-11 0 -11 9q0 5 5 7q-7 4 -7 9q0 9 10 9q3 0 7 -2q1 6 9 6q6 0 9 -5q-7 68 -7 92h8q0 -8 2 -30q1 1 4 1q7 0 7 -8t-9 -8zM452 -5q-11 0 -12 10q0 5 1 6h-19q-2 -8 -10 -8 q-14 0 -14 9q0 2 1 3q-9 1 -21 6q12 6 24 14q19 -4 28 -4q3 0 8.5 0.5t9.5 0.5q4 12 10.5 24.5t9.5 21t3 18.5q20 -4 32 -4q4 -8 4 -12q0 -8 -19 -36q8 -5 16 -15q2 7 7 7q7 0 7 -7q0 -6 -9 -6q7 -9 13 -18q-1 -5 -9 -5q-2 2 -7 7.5t-8 8.5t-8 7t-11 7q-11 -22 -12 -31 q-1 -1 -3 -1t-3 -1q5 -3 5 -9q0 -8 -8 -8q-10 0 -10 7q0 5 4 8z" />
</g></svg>

<svg xmlns="http://www.w3.org/2000/svg" viewBox="30 -115 580 830"><g>
<!--frame-->
<path d="M550 685h-460q-13 0 -21.5 -8.5t-8.5 -21.5v-710q0 -13 8.5 -21.5t21.5 -8.5h460q13 0 21.5 8.5t8.5 21.5v710q0 13 -8.5 21.5t-21.5 8.5zM610 655v-710q0 -25 -17.5 -42.5t-42.5 -17.5h-460q-25 0 -42.5 17.5t-17.5 42.5v710q0 25 17.5 42.5t42.5 17.5h460q25 0 42.5 -17.5 t17.5 -42.5z"/>
<!--index-->
<path d="M229 513l-10 -33l17 -2l7 18l3 17h-17zM195 511l-1 -26l6 -3l11 -1l-2 30h-14zM229 558l4 -30l15 3l-3 30zM207 556l-10 -33l15 3l9 31zM212 453l13 4l5 7l-30 2l-14 -8l-14 9l2 44l-9 2l4 8h7l17 42l12 13h5l1 -7l26 6l14 7l21 -11l3 -32l10 5l11 -10l-7 -16l-15 -2 l-5 -26l-9 -18l11 -14l-21 3l-18 -18zM217 580l18 19l-39 -14l-7 1l-3 42l23 7l11 -13l-10 -22l44 15l24 -8l-3 -13l-20 -2zM180 553l-24 -34l-4 -73l-9 3l-1 50l-20 -32l-12 2v24l9 11l13 48l-11 1l-11 4l5 9l20 2l-6 35l17 25l21 -12l-6 -44l24 3l2 -4l-28 -13v-12z"/>
<!--flower-trunk-branch-->
<path d="M362 169Q374 169 388 152Q419 163 423 168Q424 169 433 170Q444 171 453 173Q453 176 454 195T455 216Q450 218 436 223Q433 217 425 217Q419 217 416 221Q412 212 405 212Q394 212 394 222Q394 229 400 231Q396 237 396 242Q396 254 408 257Q396 279 385 311Q385 301 372 301Q357 301 357 314Q351 312 347 312Q338 312 332 317T326 330Q326 346 346 348Q344 352 344 354Q344 360 349 364.5T361 369Q365 369 366 368Q358 396 351 423Q349 418 343 418Q334 418 334 426T343 434Q345 434 349 432Q344 447 339 474L348 475L356 448Q359 451 364 451Q375 451 375 441T364 431Q361 431 360 432Q368 405 383 357Q384 357 386 357.5L388 358Q401 358 401 344Q401 339 398 336Q404 332 404 325T396 316Q410 276 427 251Q430 249 455 238Q453 281 442 374Q438 371 432 371Q420 371 420 381Q420 392 433 392Q436 392 440 390Q433 443 430 465Q429 464 426 464Q414 464 414 475Q414 478 415 479Q414 479 413 480Q411 479 407 479Q398 479 391.5 486T385 501Q385 512 396 517Q395 518 395 522Q395 535 409 535Q418 535 421 529L418 550Q414 548 411 548Q398 548 398 560Q398 568 405 571Q405 574 406 575Q394 575 394 586Q394 595 405 595Q408 595 412 593L405 645H416L426 578Q429 576 429 573Q429 571 428 570L434 532Q449 532 449 521Q449 518 447 514Q460 510 460 498Q460 491 455 486.5T443 482L445 471Q447 472 452 472Q465 472 465 459Q465 449 452 449Q449 449 448 450Q464 343 469 303Q470 303 472.5 303.5T476 304Q480 304 481 305Q474 307 474 314Q474 328 486 328Q490 328 492 327Q496 342 497 354Q491 357 491 365Q491 371 496 376Q490 378 490 387Q490 397 503 397L506 446Q500 448 500 455Q496 455 492.5 458T489 465Q489 475 498 475Q503 475 507 471Q508 480 508 495Q508 508 507 513H517Q518 503 518 483V471L517 463Q522 461 522 455Q522 451 518 447Q515 394 515 392Q523 392 523 382Q524 383 527 383Q538 383 538 370T527 357Q524 357 523 358Q520 353 511 351Q510 347 508.5 337.5T506 324Q518 324 518 314Q518 312 516 308Q520 304 520 299Q520 286 504 286Q497 286 492 291Q488 289 481 286.5T472 283Q478 229 478 172Q499 169 540 166V104Q519 109 496 111.5T460 115.5T441 121Q441 96 416 72T330 13Q332 -1 332 -11Q332 -25 325 -30Q251 -42 210 -42Q206 -45 201 -45Q192 -40 191 -33L192 -32Q192 -30 193 -30L188 -26Q188 -38 177 -38Q169 -38 169 -28T180 -18Q171 -9 166 -3Q166 -10 160.5 -15.5T147 -21Q134 -21 132 -8Q128 -10 125 -10Q114 -10 114 4Q114 12 120 15Q118 21 118 23Q118 37 131 39L115 63Q107 68 107 73Q107 87 119 87Q132 87 132 75Q132 67 126 64Q135 51 146 38Q148 39 152 39Q164 39 164 28Q164 25 163 23Q178 23 178 11Q178 9 176 5Q190 -8 211 -25Q216 -25 227.5 -24.5T244 -23L235 -9Q233 -11 229 -11Q219 -11 219 -2Q219 5 227 7Q212 34 191 83Q186 78 178 78Q162 78 160 93Q145 95 145 108Q145 117 155 122Q153 124 153 128Q153 139 163 139Q166 139 170 137Q157 176 149 212L160 214Q169 180 174 166Q177 172 183 172Q194 172 194 160Q194 149 180 149L185 135Q201 135 201 121Q210 119 210 108Q210 93 201 92Q217 53 233 23Q235 33 244 33Q255 33 255 23T245 13Q240 13 238 14Q256 -16 260 -21Q292 -16 307 -8Q307 -6 308 -3T309 2L296 -3Q283 4 283 16Q288 21 333.5 50.5T389 102Q378 99 361 97Q346 100 341 120Q347 130 364 138Q351 154 349 162Q354 169 362 169ZM256 272Q262 225 266 200Q269 206 277 206Q290 206 290 196Q290 183 277 183Q272 183 268 185L272 163Q275 162 275 158Q278 160 282 160Q292 160 292 149Q292 144 288 140T280 136H279Q278 137 277 137Q280 122 291 79L320 68Q311 62 301 57L268 74Q268 75 267 77T266 80Q266 82 272 86L277 84Q275 92 271.5 108T266 131L264 130H262Q253 130 253 143Q251 141 248 141Q239 141 239 150T248 159Q250 159 251 158Q251 167 260 167Q256 187 255 198Q253 197 251 197Q249 189 241 189Q236 189 233 193Q232 192 229 192Q218 192 218 201Q218 206 223 208Q216 212 216 217Q216 226 226 226Q229 226 233 224Q234 230 242 230Q248 230 251 225Q244 293 244 317H252Q252 309 254 287Q255 288 258 288Q265 288 265 280T256 272ZM452 -5Q441 -5 440 5Q440 10 441 11H422Q420 3 412 3Q398 3 398 12Q398 14 399 15Q390 16 378 21Q390 27 402 35Q421 31 430 31Q433 31 438.5 31.5T448 32Q452 44 458.5 56.5T468 77.5T471 96Q491 92 503 92Q507 84 507 80Q507 72 488 44Q496 39 504 29Q506 36 511 36Q518 36 518 29Q518 23 509 23Q516 14 522 5Q521 0 513 0Q511 2 506 7.5T498 16T490 23T479 30Q468 8 467 -1Q466 -2 464 -2T461 -3Q466 -6 466 -12Q466 -20 458 -20Q448 -20 448 -13Q448 -8 452 -5Z" />
</g></svg>
